dist/svg/sweeping-warning.svg

<!-- Generated by Trend Micro Style Portal -->
<svg version="1.1" xmlns="http://www.w3.org/2000/svg" width="16" height="16" viewBox="0 0 16 16">
  <title>sweeping-warning</title>
  <path fill="rgb(34,34,34)" d="M16 8c0-1.2-0.3-2.5-0.8-3.6l0.1-0.1c0.2-0.1 0.3-0.4 0.2-0.7-0.1-0.2-0.4-0.3-0.7-0.2 0 0 0 0 0 0l-0.1 0.1c-2.5-3.6-7.4-4.6-11.1-2.2s-4.7 7.4-2.3 11.1c2 3 5.6 4.3 9 3.2 2 0.9 4.4 0 5.3-2 0.5-1.1 0.5-2.3 0-3.3 0.3-0.7 0.4-1.5 0.4-2.3zM15 8v0c0 0.4 0 0.8-0.1 1.2-1.3-1.4-3.4-1.6-5-0.6 0.1-0.4 0.2-0.8 0-1.1l4.4-2.6c0.4 1 0.7 2 0.7 3.1zM8 9c-0.6 0-1-0.5-1-1s0.4-1 1-1c0.6 0 1 0.4 1 1s-0.5 1-1 1zM8 15v0c-3.9 0-7-3.1-7-7s3.1-7 7-7c2.3 0 4.5 1.1 5.8 3v0l-0.9 0.5c-1.1-1.5-2.9-2.5-4.9-2.5v0c-2.2 0-4.3 1.3-5.4 3.2v0 0c0.9-1.5 3.4-2.2 5.4-2.2v0c1.6 0 3 0.8 3.9 2.1v0l-0.8 0.5c-1.2-1.8-3.7-2.2-5.5-0.8-0.5 0.3-0.9 0.8-1.2 1.4v0c0.5-1 2.4-1.2 3.6-1.2 0.9 0 1.7 0.4 2.3 1.1v0l-0.9 0.5c-0.8-0.8-2-0.8-2.8-0.1s-0.8 2-0.1 2.8c0.5 0.6 1.4 0.8 2.1 0.5-1 1.6-0.8 3.7 0.6 5-0.4 0.2-0.8 0.2-1.2 0.2zM12.5 14.5h-1v-1h1v1zM12.5 13h-1v-3h1v3z"></path>
</svg>

<svg width="16" height="16" viewBox="0 0 16 16" fill="rgb(34, 34, 34)" xmlns="http://www.w3.org/2000/svg"><title>sweeping-warning</title><path d="M16 8C16 6.8 15.7 5.5 15.2 4.4L15.3 4.3C15.5 4.2 15.6 3.9 15.5 3.6C15.4 3.4 15.1 3.3 14.8 3.4L14.7 3.5C12.2 -0.0999956 7.3 -1.1 3.6 1.3C-0.0999997 3.7 -1.1 8.7 1.3 12.4C3.3 15.4 6.9 16.7 10.3 15.6C12.3 16.5 14.7 15.6 15.6 13.6C16.1 12.5 16.1 11.3 15.6 10.3C15.9 9.60001 16 8.8 16 8ZM15 8C15 8.4 15 8.8 14.9 9.2C13.6 7.8 11.5 7.60001 9.9 8.60001C10 8.20001 10.1 7.8 9.9 7.5L14.3 4.9C14.7 5.9 15 6.9 15 8ZM8 9C7.4 9 7 8.5 7 8C7 7.5 7.4 7 8 7C8.6 7 9 7.4 9 8C9 8.60001 8.5 9 8 9ZM8 15C4.1 15 1 11.9 1 8C1 4.1 4.1 1 8 1C10.3 1 12.5 2.1 13.8 4L12.9 4.5C11.8 3 10 2 8 2C5.8 2 3.7 3.3 2.6 5.2C3.5 3.7 6 3 8 3C9.6 3 11 3.8 11.9 5.1L11.1 5.6C9.9 3.8 7.4 3.4 5.6 4.8C5.1 5.1 4.7 5.6 4.4 6.2C4.9 5.2 6.8 5 8 5C8.9 5 9.7 5.4 10.3 6.1L9.4 6.6C8.6 5.8 7.4 5.8 6.6 6.5C5.8 7.2 5.8 8.5 6.5 9.3C7 9.90001 7.9 10.1 8.6 9.8C7.6 11.4 7.8 13.5 9.2 14.8C8.8 15 8.4 15 8 15ZM12.5 14.5H11.5V13.5H12.5V14.5ZM12.5 13H11.5V10H12.5V13Z" fill="rgb(34, 34, 34)" fill-opacity="1.00"/></svg>
